X: 10302
M: C
L: 1/8
K: F
(FA).c.f afge | .f(dcA) BGGA |\
(FA).c.f afTge | fdTcB AFF :|\
|: B |\
(FAcf) afTge | (fd)TcB AFF :|


